X:10851
T:Miss Barker's Hornpipe
M:2/4
L:1/16
K:F
cB|A2F2 FAGF|EGc2 cdcB|Acde fcdB|A2G2 G2cB|!
A2F2 FAGF|EGc2 cdcB|Acde fcdB|A2F2 F2:|!
|:c2|fcAc fagf|gece gbag|afge fdgf|e2c2 c2fe|!
dcBA B2ba|gfed c2BA|Bcde fcdB|A2F2 F2:|!
